X:260
T:Saddle the Pony
T:Langstrom's Pony
S:Judith Tait, Edinburgh
Z:Nigel Gatherer
M:6/8
L:1/8
K:A mixolydian
fed cAA|eAA cAA|fed cAA|BGB dBG|fed cAA|eAA efg|
f/g/af gfe|dBG Bcd::cee dff|cee ecA|cee dff|
dBG Bcd|cee dff|cAA efg|f/g/af gfe|dBG Bcd:|
<end>
<start>
